X: 885
T: Gönül Verdim Bir Civane
C: III. Selim (İlhâmî)
O: Turkey
F: http://compmusic.upf.edu/node/140
N: huzzam--sarki--aksak--gonul_verdim--iii_selim
N: makam= huzzam
N: form= sarki
N: usul= aksak = 9/8
M: 9/8
L: 1/16
K: C _1/4B _3/4e ^3/4f 
Q: 1/4=168
%%MIDI tuningsystem comma53
z2f4^e2 fgfe f6 | {z}z2 d4 ^c2de dcd6  | \
w:   |   | 
{z}B3c d2e2 f2g2 fgfe d2 | 
w:   | 
{z}a2 gag2 fgfe edd6  | {z}z2f4^e2 fgfe f6 | \
w:   |   | 
{z}z2 d4 ^c2de dcd6  | 
w:   | 
{z}B3c d2e2 f2g2 fgfe d2 | {z}d2 cBf2 eddc cBB6  | 
w:   |   | 
B4 {z}B2c2 d2e2 f2g2 a2 | g4{z}c'2 _baag gfg4{z}fa  | \
w:  *  Gö nül  ver *  dim   |  bir  ci *  *  vâ *  *  *  ne   SAZ  | 
g4 {z}g2a2 g2f2 e2d2 c2 | 
w:  *  Der din den  *  ol  | 
de dcf2 eddc Bcd4{z}cB  | B4 {z}B2c2 d2e2 f2g2 a2 | 
w:  dum  *  *  *  dî *  *  vâ *  *  *  ne   SAZ  |  *  Gö nül  ver *  dim   | 
g4{z}c'2 _baag gfg4{z}fa  | g4 {z}g2a2 g2f2 e2d2 c2 | \
w:  bir  ci *  *  vâ *  *  *  ne   SAZ  |  *  Der din den  *  ol  | 
de dcf2 eddc Bcd4{z}cd  | 
w:  dum  *  *  *  dî *  *  vâ *  *  *  ne   SAZ  | 
=e4 {zz}d2e2 =f2e2 f2g2 f2 | _1/4e3dd3ccB ABc4BA  | \
w:  *  Gel_ e fen *  dim   |  gir *  me  *  ka *  *  *  ne    | 
G4 {zz}=f3g g4 g^3/4fed c2 | 
w:  *  Ben  se ni  ver  | 
{z}B2 c4 BAA4e4d2  | {z}def4ed dccB B4 {z}cd | \
w:  mem  *  *  *  ci hâ  |  ne  *  *  a *  man  *  a *  man   SAZ  | 
=e4{zz}d2 e2=f2 e2f2 g2f2  | 
w:  *  Gel_ e fen *  dim   | 
_1/4e3d d3c cBAB c4 BA | G4{zz}=f3gg4g^3/4f edc2  | \
w:  gir *  me  *  ka *  *  *  ne    |  *  Ben  se ni  ver  | 
{z}B2c4BA A4 e4 d2 | 
w:  mem  *  *  *  ci hâ  | 
{z}de f4 eddc cBB6  | {z}z2f4^e2 fgfe f6 | \
w:  ne  *  *  a *  man  *  a *  man    |   | 
{z}z2 d4 ^c2de dcd6  | 
w:   | 
{z}B3c d2e2 f2g2 fgfe d2 | {z}a2 gag2 fgfe edd6  | 
w:   |   | 
{z}z2f4^e2 fgfe f6 | {z}z2 d4 ^c2de dcd6  | \
w:   |   | 
{z}B3c d2e2 f2g2 fgfe d2 | 
w:   | 
{z}d2 cBf2 eddc cBB6  | B4 {z}B2c2 d2e2 f2g2 a2 | \
w:   |  *  Gö nül  ver *  dim   | 
g4{z}c'2 _baag gfg4{z}fa  | 
w:  bir  ci *  *  vâ *  *  *  ne   SAZ  | 
g4 {z}g2a2 g2f2 e2d2 c2 | de dcf2 eddc Bcd4{z}cB  | 
w:  *  Der din den  *  ol  |  dum  *  *  *  dî *  *  vâ *  *  *  ne   SAZ  | 
B4 {z}B2c2 d2e2 f2g2 a2 | g4{z}c'2 _baag gfg4{z}fa  | \
w:  *  Gö nül  ver *  dim   |  bir  ci *  *  vâ *  *  *  ne   SAZ  | 
g4 {z}g2a2 g2f2 e2d2 c2 | 
w:  *  Der din den  *  ol  | 
de dcf2 eddc Bcd4{z}cd  | =e4 {zz}d2e2 =f2e2 f2g2 f2 | 
w:  dum  *  *  *  dî *  *  vâ *  *  *  ne   SAZ  |  *  Gel_ e fen *  dim   | 
_1/4e3dd3ccB ABc4BA  | G4 {zz}=f3g g4 g^3/4fed c2 | \
w:  gir *  me  *  ka *  *  *  ne    |  *  Ben  se ni  ver  | 
{z}B2 c4 BAA4e4d2  | 
w:  mem  *  *  *  ci hâ  | 
{z}def4ed dccB B4 {z}cd | =e4{zz}d2 e2=f2 e2f2 g2f2  | \
w:  ne  *  *  a *  man  *  a *  man   SAZ  |  *  Gel_ e fen *  dim   | 
_1/4e3d d3c cBAB c4 BA | 
w:  gir *  me  *  ka *  *  *  ne    | 
G4{zz}=f3gg4g^3/4f edc2  | {z}B2c4BA A4 e4 d2 | \
w:  *  Ben  se ni  ver  |  mem  *  *  *  ci hâ  | 
{z}de f4 eddc cBB6  | 
w:  ne  *  *  a *  man  *  a *  man    | 
|


